SVG_Azure_Grouped/Application/Event Grid Partner Configuration.svg

<?xml version="1.0" encoding="UTF-8" standalone="no"?>
<!-- Generated by Microsoft Visio, SVG Export Event Grid Partner Configuration.svg Page-1 -->

<svg
   xmlns:dc="http://purl.org/dc/elements/1.1/"
   xmlns:cc="http://creativecommons.org/ns#"
   xmlns:rdf="http://www.w3.org/1999/02/22-rdf-syntax-ns#"
   xmlns:svg="http://www.w3.org/2000/svg"
   xmlns="http://www.w3.org/2000/svg"
   xmlns:sodipodi="http://sodipodi.sourceforge.net/DTD/sodipodi-0.dtd"
   xmlns:inkscape="http://www.inkscape.org/namespaces/inkscape"
   width="0.78740662in"
   height="0.6299839in"
   viewBox="0 0 56.693185 45.358938"
   xml:space="preserve"
   class="st3"
   version="1.1"
   id="svg35"
   sodipodi:docname="Event Grid Partner Configuration.svg"
   style="font-size:12px;overflow:visible;color-interpolation-filters:sRGB;fill:none;fill-rule:evenodd;stroke-linecap:square;stroke-miterlimit:3"
   inkscape:version="0.92.5 (2060ec1f9f, 2020-04-08)"><metadata
   id="metadata39"><rdf:RDF><cc:Work
       rdf:about=""><dc:format>image/svg+xml</dc:format><dc:type
         rdf:resource="http://purl.org/dc/dcmitype/StillImage" /></cc:Work></rdf:RDF></metadata><sodipodi:namedview
   pagecolor="#ffffff"
   bordercolor="#666666"
   borderopacity="1"
   objecttolerance="10"
   gridtolerance="10"
   guidetolerance="10"
   inkscape:pageopacity="0"
   inkscape:pageshadow="2"
   inkscape:window-width="640"
   inkscape:window-height="480"
   id="namedview37"
   showgrid="false"
   inkscape:zoom="1.5612629"
   inkscape:cx="37.795252"
   inkscape:cy="30.225663"
   inkscape:window-x="0"
   inkscape:window-y="0"
   inkscape:window-maximized="0"
   inkscape:current-layer="svg35" />
	<style
   type="text/css"
   id="style2">
	<![CDATA[
		.st1 {fill:url(#grad0-6);stroke:none;stroke-linecap:butt;stroke-width:34}
		.st2 {fill:url(#grad0-10);stroke:none;stroke-linecap:butt;stroke-width:34}
		.st3 {fill:none;fill-rule:evenodd;font-size:12px;overflow:visible;stroke-linecap:square;stroke-miterlimit:3}
	]]>
	</style>

	<defs
   id="Patterns_And_Gradients">
		<linearGradient
   id="grad0-6"
   x1="0"
   y1="91.602297"
   x2="20.618931"
   y2="91.602297"
   gradientTransform="scale(0.98986705,1.0102367)"
   gradientUnits="userSpaceOnUse">
			<stop
   offset="0"
   stop-color="#50e6ff"
   stop-opacity="1"
   id="stop4" />
			<stop
   offset="1"
   stop-color="#5ea0ef"
   stop-opacity="1"
   id="stop6" />
		</linearGradient>
		<linearGradient
   id="grad0-10"
   x1="0"
   y1="71.248069"
   x2="40.395242"
   y2="71.248069"
   gradientTransform="scale(0.98476944,1.0154661)"
   gradientUnits="userSpaceOnUse">
			<stop
   offset="0"
   stop-color="#c69aeb"
   stop-opacity="1"
   id="stop9" />
			<stop
   offset="0.995"
   stop-color="#6f4bb2"
   stop-opacity="1"
   id="stop11" />
		</linearGradient>
	</defs>
	<g
   id="g33"
   transform="translate(-34.000237,-33.99536)">
		<title
   id="title15">Page-1</title>
		<g
   id="group14205-1"
   transform="translate(34,-34.0157)">
			<title
   id="title17">Event Grid Partner Configuration.14205</title>
			<g
   id="group14206-2">
				<title
   id="title19">Sheet.14206</title>
				<g
   id="shape14207-3">
					<title
   id="title21">Sheet.14207</title>
					<path
   d="m 20.41,103.95 v -2.44 l -2.43,-0.83 -0.63,-1.67 1.23,-2.52 V 96.21 L 17.83,95.43 16.92,94.5 H 16.6 L 14.22,95.72 12.6,95.26 11.57,92.54 H 9.21 L 8.42,95.02 6.63,95.83 3.97,94.29 2.22,95.85 v 0.32 l 1.19,2.4 -0.67,1.66 -2.74,1.2 v 2.52 h 0.36 l 2.52,0.85 0.67,1.67 -1.26,2.8 1.67,1.7 h 0.31 l 2.39,-1.21 1.62,0.69 1.04,2.92 h 2.34 V 113 l 0.83,-2.55 1.58,-0.69 2.78,1.28 1.66,-1.7 v -0.32 l -1.19,-2.39 0.44,-1.71 z m -9.97,2.23 a 3.33543,3.41124 0 1 1 3.3,-3.45 v 0.04 a 3.33228,3.40802 0 0 1 -3.3,3.25 z"
   class="st1"
   id="path23"
   inkscape:connector-curvature="0"
   style="fill:url(#grad0-6);stroke:none;stroke-width:34;stroke-linecap:butt" />
				</g>
				<g
   id="shape14208-7"
   transform="translate(16.9134,-4.33894)">
					<title
   id="title26">Sheet.14208</title>
					<path
   d="m 39.78,94.65 v -4.76 l -0.24,-0.2 -4.84,-1.7 -1.22,-3.25 2.46,-4.87 0.24,-0.53 -1.47,-1.61 -1.75,-1.91 -0.63,0.32 -4.64,2.44 -3.2,-0.94 -2.03,-5.29 h -4.6 L 17.63,72.6 16.05,77.43 12.8,78.69 7.44,76.09 4.17,79.42 4.48,80.06 6.9,84.77 5.6,88.03 0,90.1 v 4.75 l 0.67,0.2 4.93,1.67 1.31,3.47 -2.54,5.47 3.25,3.36 0.63,-0.29 4.65,-2.42 3.18,1.34 2.02,5.72 h 4.69 v -1.01 l 1.63,-5.04 3.15,-1.34 5.43,2.56 3.26,-3.33 -0.32,-0.64 -2.27,-4.38 0.91,-3.33 z m -19.49,4.38 a 6.51339,6.66142 0 1 1 6.47,-6.7 6.55118,6.70007 0 0 1 -6.47,6.7 z"
   class="st2"
   id="path28"
   inkscape:connector-curvature="0"
   style="fill:url(#grad0-10);stroke:none;stroke-width:34;stroke-linecap:butt" />
				</g>
			</g>
		</g>
	</g>
</svg>

<?xml version="1.0" encoding="UTF-8" standalone="no"?>
<!DOCTYPE svg PUBLIC "-//W3C//DTD SVG 1.1//EN" "http://www.w3.org/Graphics/SVG/1.1/DTD/svg11.dtd">
<!-- Generated by Microsoft Visio, SVG Export Event Grid Partner Configuration.svg Page-1 -->
<svg xmlns="http://www.w3.org/2000/svg" xmlns:xlink="http://www.w3.org/1999/xlink" xmlns:ev="http://www.w3.org/2001/xml-events"
		width="1.73185in" height="1.57458in" viewBox="0 0 124.693 113.37" xml:space="preserve" color-interpolation-filters="sRGB"
		class="st3">
	<style type="text/css">
	<![CDATA[
		.st1 {fill:url(#grad0-6);stroke:none;stroke-linecap:butt;stroke-width:34}
		.st2 {fill:url(#grad0-10);stroke:none;stroke-linecap:butt;stroke-width:34}
		.st3 {fill:none;fill-rule:evenodd;font-size:12px;overflow:visible;stroke-linecap:square;stroke-miterlimit:3}
	]]>
	</style>

	<defs id="Patterns_And_Gradients">
		<linearGradient id="grad0-6" x1="0" y1="0" x2="1" y2="0" gradientTransform="rotate(90 0.5 0.5)">
			<stop offset="0" stop-color="#50e6ff" stop-opacity="1"/>
			<stop offset="1" stop-color="#5ea0ef" stop-opacity="1"/>
		</linearGradient>
		<linearGradient id="grad0-10" x1="0" y1="0" x2="1" y2="0" gradientTransform="rotate(90 0.5 0.5)">
			<stop offset="0" stop-color="#c69aeb" stop-opacity="1"/>
			<stop offset="0.995" stop-color="#6f4bb2" stop-opacity="1"/>
		</linearGradient>
	</defs>
	<g>
		<title>Page-1</title>
		<g id="group13858-1" transform="translate(34,-34.0157)">
			<title>Event Grid Partner Configuration.13858</title>
			<g id="group13859-2">
				<title>Sheet.13859</title>
				<g id="shape13860-3">
					<title>Sheet.13860</title>
					<path d="M20.41 103.95 L20.41 101.51 L17.98 100.68 L17.35 99.01 L18.58 96.49 L18.58 96.21 L17.83 95.43 L16.92
								 94.5 L16.6 94.5 L14.22 95.72 L12.6 95.26 L11.57 92.54 L9.21 92.54 L8.42 95.02 L6.63 95.83 L3.97
								 94.29 L2.22 95.85 L2.22 96.17 L3.41 98.57 L2.74 100.23 L0 101.43 L0 103.95 L0.36 103.95 L2.88 104.8
								 L3.55 106.47 L2.29 109.27 L3.96 110.97 L4.27 110.97 L6.66 109.76 L8.28 110.45 L9.32 113.37 L11.66
								 113.37 L11.66 113 L12.49 110.45 L14.07 109.76 L16.85 111.04 L18.51 109.34 L18.51 109.02 L17.32 106.63
								 L17.76 104.92 L20.41 103.95 ZM10.44 106.18 A3.33543 3.41124 0 1 1 13.74 102.73 L13.74 102.77 A3.33228
								 3.40802 0 0 1 10.44 106.02 L10.44 106.18 Z" class="st1"/>
				</g>
				<g id="shape13861-7" transform="translate(16.9134,-4.33894)">
					<title>Sheet.13861</title>
					<path d="M39.78 94.65 L39.78 89.89 L39.54 89.69 L34.7 87.99 L33.48 84.74 L35.94 79.87 L36.18 79.34 L34.71 77.73
								 L32.96 75.82 L32.33 76.14 L27.69 78.58 L24.49 77.64 L22.46 72.35 L17.86 72.35 L17.63 72.6 L16.05
								 77.43 L12.8 78.69 L7.44 76.09 L4.17 79.42 L4.48 80.06 L6.9 84.77 L5.6 88.03 L0 90.1 L0 94.85 L0.67
								 95.05 L5.6 96.72 L6.91 100.19 L4.37 105.66 L7.62 109.02 L8.25 108.73 L12.9 106.31 L16.08 107.65
								 L18.1 113.37 L22.79 113.37 L22.79 112.36 L24.42 107.32 L27.57 105.98 L33 108.54 L36.26 105.21 L35.94
								 104.57 L33.67 100.19 L34.58 96.86 L39.78 94.65 ZM20.29 99.03 A6.51339 6.66142 0 1 1 26.76 92.33
								 A6.55118 6.70007 0 0 1 20.29 99.03 Z" class="st2"/>
				</g>
			</g>
		</g>
	</g>
</svg>
